plasma/desktoptheme/Arc-Color/icons/veracrypt.svg

<svg xmlns="http://www.w3.org/2000/svg" width="32" height="32" version="1.1">
 <defs>
  <style id="current-color-scheme" type="text/css">
   .ColorScheme-Background {color:#2f343f; } .ColorScheme-ButtonBackground { color:#444a58; } .ColorScheme-Highlight { color:#5c87cc; } .ColorScheme-Text { color:#d3dae3; } .ColorScheme-NegativeText { color:#f44336; } .ColorScheme-PositiveText { color:#4caf50; } .ColorScheme-NeutralText { color:#ff9800; }
  </style>
 </defs>
 <g id="22-22-veracrypt" transform="translate(0,-22)">
  <rect style="opacity:0.001" width="22" height="22" x="0" y="0"/>
  <path style="opacity:0.35;fill:currentColor" class="ColorScheme-Text" d="m 2,3 4.4492188,16 0.2910156,-0.955078 1.6152344,-7.029297 h 0.085937 L 6.3007812,3 Z"/>
  <path style="opacity:0.15;fill:currentColor" class="ColorScheme-Text" d="m 12.035877,11.019838 -3.6795694,-0.0049 -1.6153846,7.029384 -0.2923077,0.955077 4.1588307,-7e-6 c 1.687754,-7.318154 1.4288,-7.980154 1.4288,-7.980154 z"/>
  <path style="fill:currentColor" class="ColorScheme-Text" d="M 11.038461,3.0000005 8.4394615,11.015539 10.6,19 h 8.631384 L 17.38523,15 h -3.7 L 12.562539,11.015539 13.992923,7 h 3.392307 l 1.846154,-3.9999995 z"/>
 </g>
 <g id="veracrypt">
  <rect style="opacity:0.001" width="32" height="32" x="0" y="0"/>
  <path style="opacity:0.35;fill:currentColor" class="ColorScheme-Text" d="M 2.9999994,3.9999999 9.7133136,28 10.15242,26.567383 12.589607,16.023438 h 0.129668 L 9.4893398,3.9999999 Z"/>
  <path style="opacity:0.15;fill:currentColor" class="ColorScheme-Text" d="m 18.142882,16.029757 -5.55201,-0.0073 -2.437413,10.544075 -0.441056,1.432616 6.275155,-1.1e-5 c 2.54661,-10.977231 2.15588,-11.970231 2.15588,-11.970231 z"/>
  <path style="fill:currentColor" class="ColorScheme-Text" d="M 16.637906,4.0000006 12.716341,16.023309 15.976322,28 h 13.023679 l -2.785616,-6 h -5.582836 l -1.694,-5.976691 2.15827,-6.023308 h 5.118566 l 2.785616,-6.0000004 z"/>
 </g>
</svg>

<?xml version="1.0" encoding="UTF-8"?>
<svg width="32" height="32" version="1.1" xmlns="http://www.w3.org/2000/svg">
 <defs>
  <style id="current-color-scheme" type="text/css">.ColorScheme-Background {color:#2f343f; } .ColorScheme-ButtonBackground { color:#444a58; } .ColorScheme-Highlight { color:#5c87cc; } .ColorScheme-Text { color:#d3dae3; } .ColorScheme-NegativeText { color:#f44336; } .ColorScheme-PositiveText { color:#4caf50; } .ColorScheme-NeutralText { color:#ff9800; }</style>
 </defs>
 <g id="22-22-veracrypt" transform="translate(0,-22)">
  <rect width="22" height="22" opacity=".001"/>
  <path class="ColorScheme-Text" d="m2 3 4.4492 16 0.29102-0.95508 1.6152-7.0293h0.085937l-2.1406-8.0156z" fill="currentColor" opacity=".35"/>
  <path class="ColorScheme-Text" d="m12.036 11.02-3.6796-0.0049-1.6154 7.0294-0.29231 0.95508 4.1588-7e-6c1.6878-7.3182 1.4288-7.9802 1.4288-7.9802z" fill="currentColor" opacity=".15"/>
  <path class="ColorScheme-Text" d="m11.038 3-2.599 8.0155 2.1605 7.9845h8.6314l-1.8462-4h-3.7l-1.1227-3.9845 1.4304-4.0155h3.3923l1.8462-4z" fill="currentColor"/>
 </g>
 <g id="veracrypt">
  <rect width="32" height="32" opacity=".001"/>
  <path class="ColorScheme-Text" d="m3 4 6.7133 24 0.43911-1.4326 2.4372-10.544h0.12967l-3.2299-12.023z" fill="currentColor" opacity=".35"/>
  <path class="ColorScheme-Text" d="m18.143 16.03-5.552-0.0073-2.4374 10.544-0.44106 1.4326 6.2752-1.1e-5c2.5466-10.977 2.1559-11.97 2.1559-11.97z" fill="currentColor" opacity=".15"/>
  <path class="ColorScheme-Text" d="m16.638 4-3.9216 12.023 3.26 11.977h13.024l-2.7856-6h-5.5828l-1.694-5.9767 2.1583-6.0233h5.1186l2.7856-6z" fill="currentColor"/>
 </g>
</svg>
